X:1
T:RVW2/1/25 The Two Champions-0
T:RVW2/1/25 The Two Champions-0
T:Sung by Mr. Drabbles of Thrybergh, Sept. 1907 (4 of 4, but numbered 3 in VWML catalogue)
T:Transcribed by Simon Furey and Lewis Jones
C:Transcribed by Simon Furey and Lewis Jones
L:1/8
Q:1/4=80
M:2/4
K:F
V:1 treble 
V:1
"^(editorial suggestion)" C | F2 FA | c>AFF | G>GAB | A3 C | F2 FA | c>AFF | G>FED | C3 c | c>BAF | %10
 F!fermata!D Bc | dcBG | F E2 C |: F2 FF | FdcB | AABG |"^(a)" F2 AF | GCCC | C3 A |"^(b)" c CCC | %20
 C3 D | F2 FF | FdcB | AABG | F4 :| C | F2 FA | c>AFF | G>GAB | A3 C | F2 FA | c>AFF | G>F ED | %33
 C3 c | c>BAF | F!fermata!D Bc | dcBG | F E2 C |: F2 FF | FdcB | AABG |"^(a) var." F>GAF | GCCC | %43
 C3 A |"^(b) var. \" GC uceaG CCC | C3 D | F2 FF | FdcB | AABG | F4 :| %50

